kora-light/actions/scalable/camera-ready.svg

<svg xmlns="http://www.w3.org/2000/svg" width="16" height="16" viewBox="0 0 16 16">
 <defs>
  <style id="current-color-scheme" type="text/css">
   .ColorScheme-Text { color:#444444; } .ColorScheme-Highlight { color:#4285f4; }
  </style>
 </defs>
 <path style="fill:currentColor;opacity:0.3" class="ColorScheme-Text" d="M 8 1 C 4.6863 1 2 3.6863 2 7 C 2 9.087 3.0708 10.9251 4.6875 12 L 4 12 C 2 12 2 14 2 14 L 2 15 L 14 15 L 14 14 C 14 14 14 12 12 12 L 11.3125 12 C 12.9292 10.9251 14 9.087 14 7 C 14 3.6863 11.3137 1 8 1 z M 8 5.0039062 A 2 2 0 0 1 10 7.0039062 A 2 2 0 0 1 8 9.0039062 A 2 2 0 0 1 6 7.0039062 A 2 2 0 0 1 8 5.0039062 z"/>
</svg>

<svg xmlns="http://www.w3.org/2000/svg" style="fill-rule:evenodd;clip-rule:evenodd;stroke-linejoin:round;stroke-miterlimit:2" width="100%" height="100%" version="1.1" viewBox="0 0 16 16" xml:space="preserve">
 <defs>
  <style id="current-color-scheme" type="text/css">
   .ColorScheme-Text { color:#444444; } .ColorScheme-Highlight { color:#4285f4; } .ColorScheme-NeutralText { color:#ff9800; } .ColorScheme-PositiveText { color:#4caf50; } .ColorScheme-NegativeText { color:#f44336; }
  </style>
 </defs>
 <path style="fill:currentColor;fill-opacity:0.3;" class="ColorScheme-Text" d="M8,1c-3.314,0 -6,2.686 -6,6c0,2.087 1.071,3.925 2.688,5l-0.688,0c-2,0 -2,2 -2,2l-0,1l12,0l0,-1c0,0 0,-2 -2,-2l-0.688,0c1.617,-1.075 2.688,-2.913 2.688,-5c0,-3.314 -2.686,-6 -6,-6Zm0,1.001c2.744,0 5.002,2.259 5.002,5.003c0,2.744 -2.258,5.002 -5.002,5.002c-2.744,0 -5.002,-2.258 -5.002,-5.002c-0,-2.744 2.258,-5.003 5.002,-5.003Zm0,2.871c1.228,0 2.226,0.997 2.226,2.226c-0,1.228 -0.998,2.225 -2.226,2.225c-1.228,0 -2.226,-0.997 -2.226,-2.225c0,-1.229 0.998,-2.226 2.226,-2.226Z"/>
</svg>
